X:6643
T:Gger
R:Zwiefacher
O:Germany
M:2/4
L:1/4
Q:1/4=100
K:D
M:3/4 
AF|AF| A2D|EGE|1 F A/2F/2D:|2 D3||!
EGE| F A/2F/2D|EGE|F A/2F/2 D|A z2|A z2|  AF|AF| A2 D|EGE|D3:|
